X:2
T:Jimmy in the Swamp
M:C|
L:1/8
Z:http://www.abbamoses.com/fiddledo/fiddlepage
K:G
(3DEF|:G2 Bc BAGA|B e2 e-ef g2|DEGA BAGB|ABAG E2D2|
G2 Bc BAGA|B e2 e-ef g2|abag efge|1 dBAF G2 (3DEF:|2 dBAF G2 [G2B2]||
|:[e2e2][e2e2] B4|efed B2 gf|e2E2 EFGA|BcBA G2E2|
[e2e2][e2e2] B4|efed B2 gf|e2E2 EFGA|BGAF G4:||
